src/icons/test.svg

<?xml version="1.0"?><svg xmlns="http://www.w3.org/2000/svg"  viewBox="0 0 50 50" width="32px" height="32px">    <path d="M 7 7 C 5.3 7 4 8.3 4 10 L 4 13 L 46 13 L 46 10 C 46 8.3 44.7 7 43 7 L 7 7 z M 8 9 C 8.552 9 9 9.448 9 10 C 9 10.552 8.552 11 8 11 C 7.448 11 7 10.552 7 10 C 7 9.448 7.448 9 8 9 z M 11 9 C 11.552 9 12 9.448 12 10 C 12 10.552 11.552 11 11 11 C 10.448 11 10 10.552 10 10 C 10 9.448 10.448 9 11 9 z M 14 9 C 14.552 9 15 9.448 15 10 C 15 10.552 14.552 11 14 11 C 13.448 11 13 10.552 13 10 C 13 9.448 13.448 9 14 9 z M 4 15 L 4 40 C 4 41.657 5.343 43 7 43 L 43 43 C 44.657 43 46 41.657 46 40 L 46 15 L 4 15 z M 37.1875 20.019531 C 37.315281 20.043859 37.441141 20.092922 37.556641 20.169922 C 38.015641 20.473922 38.139031 21.095688 37.832031 21.554688 L 33.832031 27.554688 C 33.802031 27.599688 33.765469 27.635828 33.730469 27.673828 C 33.720469 27.683828 33.717031 27.697031 33.707031 27.707031 C 33.702031 27.712031 33.696406 27.71375 33.691406 27.71875 C 33.606406 27.80075 33.507344 27.862203 33.402344 27.908203 C 33.379344 27.918203 33.357984 27.927547 33.333984 27.935547 C 33.226984 27.973547 33.115953 28 33.001953 28 L 33 28 L 32.998047 28 C 32.885047 28 32.773062 27.974547 32.664062 27.935547 C 32.630063 27.923547 32.600359 27.906625 32.568359 27.890625 C 32.527359 27.870625 32.484312 27.857031 32.445312 27.832031 C 32.416312 27.813031 32.402953 27.784672 32.376953 27.763672 C 32.350953 27.742672 32.318922 27.732031 32.294922 27.707031 L 29.294922 24.707031 C 28.903922 24.316031 28.903922 23.685922 29.294922 23.294922 C 29.685922 22.903922 30.316031 22.903922 30.707031 23.294922 L 32.845703 25.431641 L 36.169922 20.447266 C 36.399422 20.103016 36.804156 19.946547 37.1875 20.019531 z M 13 23 L 24 23 C 24.553 23 25 23.448 25 24 C 25 24.552 24.553 25 24 25 L 13 25 C 12.447 25 12 24.552 12 24 C 12 23.448 12.447 23 13 23 z M 37.1875 30.019531 C 37.315281 30.043891 37.441141 30.093172 37.556641 30.169922 C 38.015641 30.474922 38.139031 31.094688 37.832031 31.554688 L 33.832031 37.554688 C 33.802031 37.599688 33.765469 37.635828 33.730469 37.673828 C 33.720469 37.683828 33.717031 37.697031 33.707031 37.707031 C 33.702031 37.712031 33.696406 37.71375 33.691406 37.71875 C 33.606406 37.80075 33.507344 37.862203 33.402344 37.908203 C 33.379344 37.918203 33.357984 37.927547 33.333984 37.935547 C 33.226984 37.973547 33.115953 38 33.001953 38 L 33 38 L 32.998047 38 C 32.885047 38 32.773062 37.974547 32.664062 37.935547 C 32.630063 37.923547 32.600359 37.906625 32.568359 37.890625 C 32.527359 37.870625 32.484312 37.857031 32.445312 37.832031 C 32.416312 37.813031 32.402953 37.784672 32.376953 37.763672 C 32.350953 37.742672 32.318922 37.732031 32.294922 37.707031 L 29.294922 34.707031 C 28.903922 34.316031 28.903922 33.685922 29.294922 33.294922 C 29.685922 32.903922 30.316031 32.903922 30.707031 33.294922 L 32.845703 35.431641 L 36.169922 30.447266 C 36.399422 30.102266 36.804156 29.946453 37.1875 30.019531 z M 13 33 L 24 33 C 24.553 33 25 33.447 25 34 C 25 34.553 24.553 35 24 35 L 13 35 C 12.447 35 12 34.553 12 34 C 12 33.447 12.447 33 13 33 z"/></svg>

<svg role="img" viewBox="0 0 50 50" xmlns="http://www.w3.org/2000/svg"><path d="M7 7c-1.7 0-3 1.3-3 3v3h42v-3c0-1.7-1.3-3-3-3zm1 2a1 1 0 1 1 0 2 1 1 0 0 1 0-2m3 0a1 1 0 1 1 0 2 1 1 0 0 1 0-2m3 0a1 1 0 1 1 0 2 1 1 0 0 1 0-2M4 15v25a3 3 0 0 0 3 3h36a3 3 0 0 0 3-3V15zm33.188 5.02a.997.997 0 0 1 .645 1.535l-4.001 6c-.03.045-.067.08-.102.119-.01.01-.013.023-.023.033-.005.005-.01.007-.016.012a.977.977 0 0 1-.289.19.994.994 0 0 1-.4.092L33 27.999h-.002a.995.995 0 0 1-.334-.064c-.034-.012-.064-.03-.096-.045-.04-.02-.084-.034-.123-.059-.029-.019-.042-.047-.068-.068-.026-.021-.058-.032-.082-.057l-3-3a.997.997 0 0 1 0-1.412.997.997 0 0 1 1.412 0l2.139 2.137 3.324-4.985a.997.997 0 0 1 1.017-.427M13 23h11a1 1 0 1 1 0 2H13a1 1 0 1 1 0-2m24.188 7.02a.997.997 0 0 1 .645 1.535l-4.001 6c-.03.045-.067.08-.102.119-.01.01-.013.023-.023.033-.005.005-.01.007-.016.012a.977.977 0 0 1-.289.19.994.994 0 0 1-.4.092L33 37.999h-.002a.995.995 0 0 1-.334-.064c-.034-.012-.064-.03-.096-.045-.04-.02-.084-.034-.123-.059-.029-.019-.042-.047-.068-.068-.026-.021-.058-.032-.082-.057l-3-3a.997.997 0 0 1 0-1.412.997.997 0 0 1 1.412 0l2.139 2.137 3.324-4.985a.996.996 0 0 1 1.017-.427M13 33h11a1 1 0 1 1 0 2H13a1 1 0 1 1 0-2"/></svg>
